img/key.svg

<svg height="45" viewBox="0 0 48 45" width="48" xmlns="http://www.w3.org/2000/svg"><g fill="none" fill-rule="evenodd"><circle cx="24" cy="22" fill="none" r="26"/><g fill="#333" fill-rule="nonzero"><path d="m47.65623 20.3530662-22.9999503-20.10713824c-.3749997-.32790395-.9374993-.32790395-1.312499 0l-23.00004407 20.10713824c-.31443724.2758766-.42581216.7186742-.28124977 1.1114238.14653113.3927496.51956208.6528861.93749925.6528861h5.00005849v21.1125281c0 .5557119.44728089 1.0053899 1.00003045 1.0053899h34.00000405c.5527495 0 1.0000304-.449678 1.0000304-1.0053899v-21.1125281h4.9999647c.4179372 0 .7910619-.2601365.9374993-.6528861.1444686-.3927496.0330937-.8355472-.2813435-1.1114238zm-6.6562447-.2463757c-.5527496 0-1.0000304.449678-1.0000304 1.0053899v21.1125282h-31.99994315v-21.1125282c0-.5557119-.44728089-1.0053899-1.00003045-1.0053899h-3.32615358l20.32620248-17.76949122 20.3262024 17.76949122z"/><circle cx="28.235" cy="22.588" r="1.882"/><path d="m20.3293632 23.2469715c0 .7794769.1274373 1.5488598.3822147 2.2950457l-6.2906244 6.2906539c-.1941161.1941171-.3033064.4569515-.3033064.7320154v3.1058726c0 .5722571.463064 1.0353233 1.0353183 1.0353233h3.1058581c.2749655 0 .5378958-.1091909.732012-.3033079l6.2906243-6.2895863c.7461824.2527404 1.5144941.3811489 2.2950351.3811489 3.9955893 0 7.2470345-3.2514605 7.2470345-7.2470686s-3.2514452-7.2470685-7.2470345-7.2470685c-3.9955894 0-7.2471317 3.2513634-7.2471317 7.2469715zm7.2470346-5.1765191c2.8551571 0 5.1763978 2.3223192 5.1763978 5.176422 0 2.8541029-2.3213378 5.1765191-5.1763978 5.1765191-.7238591 0-1.4377211-.1567495-2.121107-.466075-.396288-.1799465-.8573139-.0940497-1.1586791.2112964l-6.4664936 6.4665239h-1.6419313v-1.641939l6.4664936-6.4665239c.3053446-.3042784.3882322-.7653064.212363-1.1576169-.3094211-.6855244-.4671405-1.4002633-.4671405-2.1221846 0-2.8540058 2.3213378-5.176422 5.1764949-5.176422z"/></g></g></svg>

<?xml version="1.0" encoding="UTF-8"?>
<svg width="48px" height="45px" viewBox="0 0 48 45" version="1.1" xmlns="http://www.w3.org/2000/svg" xmlns:xlink="http://www.w3.org/1999/xlink">
    <!-- Generator: Sketch 51.2 (57519) - http://www.bohemiancoding.com/sketch -->
    <title>key</title>
    <desc>Created with Sketch.</desc>
    <defs></defs>
    <g id="Events" stroke="none" stroke-width="1" fill="none" fill-rule="evenodd">
        <g id="Assets" transform="translate(-246.000000, -243.000000)">
            <g id="Icon" transform="translate(244.000000, 239.000000)">
                <circle id="Oval" fill-opacity="0" fill="#D8D8D8" cx="26" cy="26" r="26"></circle>
                <g id="smart-home" transform="translate(2.000000, 4.000000)" fill="#333333" fill-rule="nonzero">
                    <path d="M47.65623,20.3530662 L24.6562797,0.245927964 C24.28128,-0.0819759881 23.7187804,-0.0819759881 23.3437807,0.245927964 L0.343736634,20.3530662 C0.0292993857,20.6289428 -0.0820755251,21.0717404 0.0624868591,21.46449 C0.209017992,21.8572396 0.582048943,22.1173761 0.999986108,22.1173761 L6.0000446,22.1173761 L6.0000446,43.2299042 C6.0000446,43.7856161 6.44732549,44.2352941 7.00007505,44.2352941 L41.0000791,44.2352941 C41.5528286,44.2352941 42.0001095,43.7856161 42.0001095,43.2299042 L42.0001095,22.1173761 L47.0000742,22.1173761 C47.4180114,22.1173761 47.7911361,21.8572396 47.9375735,21.46449 C48.0820421,21.0717404 47.9706672,20.6289428 47.65623,20.3530662 Z M40.9999853,20.1066905 C40.4472357,20.1066905 39.9999549,20.5563685 39.9999549,21.1120804 L39.9999549,42.2246086 L8.00001175,42.2246086 L8.00001175,21.1120804 C8.00001175,20.5563685 7.55273086,20.1066905 6.9999813,20.1066905 L3.67382772,20.1066905 L24.0000302,2.33719928 L44.3262326,20.1066905 L40.9999853,20.1066905 Z" id="Shape"></path>
                    <circle id="Oval" cx="28.2352941" cy="22.5882353" r="1.88235294"></circle>
                    <path d="M20.3293632,23.2469715 C20.3293632,24.0264484 20.4568005,24.7958313 20.7115779,25.5420172 L14.4209535,31.8326711 C14.2268374,32.0267882 14.1176471,32.2896226 14.1176471,32.5646865 L14.1176471,35.6705591 C14.1176471,36.2428162 14.5807111,36.7058824 15.1529654,36.7058824 L18.2588235,36.7058824 C18.533789,36.7058824 18.7967193,36.5966915 18.9908355,36.4025745 L25.2814598,30.1129882 C26.0276422,30.3657286 26.7959539,30.4941371 27.5764949,30.4941371 C31.5720842,30.4941371 34.8235294,27.2426766 34.8235294,23.2470685 C34.8235294,19.2514604 31.5720842,16 27.5764949,16 C23.5809055,16 20.3293632,19.2513634 20.3293632,23.2469715 Z M27.5763978,18.0704524 C30.4315549,18.0704524 32.7527956,20.3927716 32.7527956,23.2468744 C32.7527956,26.1009773 30.4314578,28.4233935 27.5763978,28.4233935 C26.8525387,28.4233935 26.1386767,28.266644 25.4552908,27.9573185 C25.0590028,27.777372 24.5979769,27.8632688 24.2966117,28.1686149 L17.8301181,34.6351388 L16.1881868,34.6351388 L16.1881868,32.9931998 L22.6546804,26.5266759 C22.960025,26.2223975 23.0429126,25.7613695 22.8670434,25.369059 C22.5576223,24.6835346 22.3999029,23.9687957 22.3999029,23.2468744 C22.3999029,20.3928686 24.7212407,18.0704524 27.5763978,18.0704524 Z" id="Shape"></path>
                </g>
            </g>
        </g>
    </g>
</svg>
